docs/local/img/sprites/pdf.svg

<svg width="29" height="26" viewBox="0 0 29 26" xmlns="http://www.w3.org/2000/svg">
<path d="M6.06793 2.58729H16.9373V5.53125C16.9373 5.80752 17.0471 6.07247 17.2424 6.26782C17.4378 6.46317 17.7027 6.57292 17.979 6.57292H20.9229V9.05208H23.0063V5.53125C23.0047 5.29877 22.9555 5.06908 22.8618 4.85635C22.768 4.64362 22.6316 4.45236 22.4611 4.29438L19.1652 1.04438C19.0173 0.87506 18.835 0.739184 18.6305 0.645787C18.426 0.552391 18.204 0.503616 17.9792 0.502708H5.81043C5.32376 0.505794 4.85819 0.7018 4.51586 1.04773C4.17353 1.39365 3.98239 1.86124 3.98439 2.34792V9.05167H6.06772L6.06793 2.58729Z"/>
<path d="M3.98438 23.6667C3.98338 24.1523 4.1751 24.6185 4.51745 24.9629C4.85979 25.3073 5.3248 25.5018 5.81042 25.5037H21.175C21.6613 25.5025 22.1272 25.3083 22.4705 24.9639C22.8138 24.6195 23.0064 24.1529 23.006 23.6667V23.4204H3.98521L3.98438 23.6667Z"/>
<path d="M8.06404 14.8308V14.8033C8.07198 14.3217 7.97676 13.8439 7.78478 13.402C7.59279 12.9602 7.30849 12.5645 6.95096 12.2417C6.59343 11.9188 6.17095 11.6761 5.71189 11.53C5.25284 11.3839 4.76783 11.3377 4.28945 11.3946H1.34612C1.20344 11.3936 1.06198 11.421 0.929971 11.4751C0.797958 11.5292 0.678021 11.6091 0.577128 11.71C0.476235 11.8109 0.396399 11.9308 0.342257 12.0628C0.288115 12.1948 0.260748 12.3363 0.261745 12.479V20.2527C0.261745 20.5403 0.375991 20.8161 0.57935 21.0195C0.78271 21.2228 1.05853 21.3371 1.34612 21.3371C1.63371 21.3371 1.90953 21.2228 2.11289 21.0195C2.31625 20.8161 2.43049 20.5403 2.43049 20.2527V18.2954H4.07841C4.57344 18.3609 5.07673 18.3204 5.55493 18.1766C6.03312 18.0329 6.47531 17.7891 6.85217 17.4615C7.22903 17.1339 7.53196 16.73 7.74088 16.2764C7.94981 15.8229 8.05996 15.3302 8.06404 14.8308ZM2.43049 13.3527H4.10695C5.19133 13.3527 5.86674 13.8735 5.86674 14.845V14.8735C5.86375 15.0883 5.81547 15.2999 5.72505 15.4947C5.63463 15.6895 5.50411 15.8629 5.34203 16.0038C5.17996 16.1447 4.98997 16.2497 4.7845 16.3121C4.57902 16.3745 4.3627 16.3928 4.14966 16.3658H2.43049V13.3527Z"/>
<path d="M13.5171 11.3946H10.7563C10.6136 11.3936 10.4721 11.4209 10.3401 11.4751C10.2081 11.5292 10.0882 11.6091 9.98729 11.71C9.88639 11.8109 9.80656 11.9308 9.75241 12.0628C9.69827 12.1948 9.6709 12.3363 9.6719 12.479V20.1683C9.6709 20.311 9.69827 20.4525 9.75241 20.5845C9.80656 20.7165 9.88639 20.8364 9.98729 20.9373C10.0882 21.0382 10.2081 21.1181 10.3401 21.1722C10.4721 21.2263 10.6136 21.2537 10.7563 21.2527H13.5171C14.1897 21.2942 14.8637 21.1975 15.4975 20.9685C16.1314 20.7395 16.7116 20.3832 17.2024 19.9214C17.6932 19.4597 18.0843 18.9023 18.3515 18.2836C18.6186 17.6649 18.7563 16.9981 18.7559 16.3242V16.2956C18.7556 15.6231 18.6173 14.9578 18.3495 14.341C18.0817 13.7241 17.6902 13.1687 17.1991 12.7093C16.708 12.2499 16.1278 11.8961 15.4945 11.67C14.8611 11.4438 14.1881 11.3501 13.5171 11.3946ZM16.4896 16.3517C16.5091 16.7459 16.4453 17.1397 16.3024 17.5077C16.1595 17.8756 15.9408 18.2093 15.6603 18.487C15.3799 18.7647 15.0441 18.9803 14.6749 19.1196C14.3056 19.2589 13.9111 19.3189 13.5171 19.2956H11.8407V13.3527H13.5171C13.9127 13.3325 14.3081 13.3956 14.6778 13.5377C15.0475 13.6799 15.3833 13.8981 15.6634 14.1781C15.9436 14.4582 16.1619 14.7938 16.3042 15.1635C16.4465 15.5332 16.5096 15.9286 16.4896 16.3242V16.3517Z"/>
<path d="M27.2888 13.3669C27.5504 13.3669 27.8013 13.263 27.9862 13.078C28.1712 12.8931 28.2751 12.6422 28.2751 12.3806C28.2751 12.1191 28.1712 11.8682 27.9862 11.6832C27.8013 11.4983 27.5504 11.3944 27.2888 11.3944H21.768C21.6253 11.3934 21.4839 11.4207 21.3518 11.4749C21.2198 11.529 21.0999 11.6089 20.999 11.7098C20.8981 11.8107 20.8183 11.9306 20.7641 12.0626C20.71 12.1946 20.6826 12.3361 20.6836 12.4787V20.2525C20.6836 20.3949 20.7117 20.5359 20.7662 20.6675C20.8207 20.799 20.9005 20.9186 21.0012 21.0193C21.1019 21.12 21.2215 21.1998 21.353 21.2543C21.4846 21.3088 21.6256 21.3369 21.768 21.3369C21.9104 21.3369 22.0514 21.3088 22.183 21.2543C22.3145 21.1998 22.4341 21.12 22.5348 21.0193C22.6355 20.9186 22.7153 20.799 22.7698 20.6675C22.8243 20.5359 22.8524 20.3949 22.8524 20.2525V17.436H26.6549C26.9163 17.436 27.167 17.3322 27.3519 17.1473C27.5367 16.9625 27.6406 16.7117 27.6406 16.4503C27.6406 16.1889 27.5367 15.9382 27.3519 15.7533C27.167 15.5684 26.9163 15.4646 26.6549 15.4646H22.8515V13.3669H27.2888Z"/>
</svg>

<svg width="29" height="26" viewBox="0 0 29 26" xmlns="http://www.w3.org/2000/svg"><path d="M6.068 2.587h10.87v2.944a1.042 1.042 0 001.041 1.042h2.944v2.48h2.083V5.53a1.703 1.703 0 00-.545-1.237l-3.296-3.25a1.583 1.583 0 00-1.185-.54H5.81a1.838 1.838 0 00-1.826 1.845v6.704h2.084V2.587zm-2.084 21.08a1.833 1.833 0 001.826 1.837h15.365a1.836 1.836 0 001.831-1.837v-.247H3.986l-.002.247zm4.08-8.837v-.027a3.377 3.377 0 00-3.775-3.408H1.346a1.078 1.078 0 00-1.084 1.084v7.774a1.085 1.085 0 002.168 0v-1.958h1.648a3.523 3.523 0 003.986-3.464zM2.43 13.354h1.677c1.084 0 1.76.52 1.76 1.492v.028a1.526 1.526 0 01-1.717 1.493H2.43v-3.013zm11.087-1.959h-2.76a1.076 1.076 0 00-1.085 1.084v7.69a1.077 1.077 0 001.084 1.084h2.761a4.934 4.934 0 005.239-4.929v-.028a4.913 4.913 0 00-5.239-4.901zm2.973 4.957a2.81 2.81 0 01-2.973 2.944h-1.676v-5.943h1.676a2.833 2.833 0 012.973 2.971v.028zm10.799-2.985a.986.986 0 100-1.973h-5.521a1.076 1.076 0 00-1.084 1.085v7.774a1.085 1.085 0 002.168 0v-2.817h3.803a.986.986 0 100-1.971h-3.803v-2.098h4.437z"/></svg>
